static/img/common/ico-photo2.svg

<svg width="15" height="14" viewBox="0 0 15 14" fill="none" xmlns="http://www.w3.org/2000/svg">
<g clip-path="url(#clip0_504_11)">
<path d="M12.61 2.59H10.3V2.26C10.3 1.29 9.51 0.5 8.54 0.5H6.23C5.26 0.5 4.47 1.29 4.47 2.26V2.59H2.17C1.25 2.59 0.5 3.34 0.5 4.26V11.05C0.5 11.97 1.25 12.72 2.17 12.72H12.61C13.53 12.72 14.28 11.97 14.28 11.05V4.26C14.28 3.34 13.53 2.59 12.61 2.59Z" fill="white" stroke="#776D70" stroke-miterlimit="10"/>
<path d="M8.72 5.75H6.05C5.37621 5.75 4.83 6.29621 4.83 6.97V8.33C4.83 9.00379 5.37621 9.55 6.05 9.55H8.72C9.39379 9.55 9.94 9.00379 9.94 8.33V6.97C9.94 6.29621 9.39379 5.75 8.72 5.75Z" stroke="#776D70" stroke-miterlimit="10"/>
<path d="M12.39 4.85998C12.5999 4.85998 12.77 4.68984 12.77 4.47998C12.77 4.27011 12.5999 4.09998 12.39 4.09998C12.1801 4.09998 12.01 4.27011 12.01 4.47998C12.01 4.68984 12.1801 4.85998 12.39 4.85998Z" fill="#776D70"/>
</g>
<defs>
<clipPath id="clip0_504_11">
<rect width="14.78" height="13.22" fill="white"/>
</clipPath>
</defs>
</svg>

<svg xmlns="http://www.w3.org/2000/svg" width="15" height="14" fill="none" viewBox="0 0 15 14"><g clip-path="url(#a)"><path fill="#fff" stroke="#776d70" stroke-miterlimit="10" d="M12.61 2.59H10.3v-.33C10.3 1.29 9.51.5 8.54.5H6.23c-.97 0-1.76.79-1.76 1.76v.33h-2.3C1.25 2.59.5 3.34.5 4.26v6.79c0 .92.75 1.67 1.67 1.67h10.44c.92 0 1.67-.75 1.67-1.67V4.26c0-.92-.75-1.67-1.67-1.67Z"/><path stroke="#776d70" stroke-miterlimit="10" d="M8.72 5.75H6.05a1.22 1.22 0 0 0-1.22 1.22v1.36c0 .674.546 1.22 1.22 1.22h2.67a1.22 1.22 0 0 0 1.22-1.22V6.97a1.22 1.22 0 0 0-1.22-1.22Z"/><path fill="#776d70" d="M12.39 4.86a.38.38 0 1 0 0-.76.38.38 0 0 0 0 .76"/></g><defs><clipPath id="a"><path fill="#fff" d="M0 0h14.78v13.22H0z"/></clipPath></defs></svg>
